X:170
T: Sore Foot
S: "Ceol Rince na hEireann" 1/92
Z: B.Black
L: 1/8
M: 4/4
R: reel
K: G
EG|AcBG AE E2|GABG A2 EG|(3ABc BA GEDE|GEDE G2 EG|
AcBG AE E2|(3ABc BG A2 EG|(3ABc BA GEDE|GEDE G2||
Bd|e2 dg eA A2|e2 dB GABd|e2 de gedB|(3cBA (3BAG AGEd|
e2 dg eA A2|e2 dB GABd|e2 de gedB|(3cBA (3BAG AGEG||
